X: 48112
T: the Sprightly Minikin
C: (Traditional)
R: reel
B: RSCDS 49-11
N: Tune for the dance MacDonald of Keppoch
Z: 2015 John Chambers <jc:trillian.mit.edu>
M: C|
L: 1/8
K: Bdor
b |\
"Bm"f2Bc "F#/Bm"defg | "A"agae "E/A"cAAe |\
"Bm"f2Bc "E7"defg | "A"agac "Bm"B2B :|
f |\
"Bm"dcBc "F#/Bm"dcBc | "Bm"dfed  "A"cAAc |\
"Bm"dcBc "F#/Bm"defb | "A"agac "Bm"B2B ||
c |\
"Bm"dcBc "F#/Bm"dcBc | "Bm"dfed  "A"cAAc |\
"Bm"Bc"A"de "G"fe"Em"fb | "F#m"ag"A"ac "Bm"B2B |]
